X:88
T: Mikor leány voltam
O: Bogdánfalva (Bákó), 1929
Q:1/4=116
M:none
L:1/4
K:Ab
F/=A/ c c | (c/=A/) B |
c/=A/ B B | =A/F/ z |
F/G/A A | (G/F/)G |
A/F/G G | A/F/ z |

